public/assets/boots.svg

<?xml version="1.0" encoding="UTF-8" standalone="no"?>
<svg width="152px" height="128px" viewBox="0 0 152 128" version="1.1" xmlns="http://www.w3.org/2000/svg" xmlns:xlink="http://www.w3.org/1999/xlink" xmlns:sketch="http://www.bohemiancoding.com/sketch/ns">
    <!-- Generator: Sketch 3.5.2 (25235) - http://www.bohemiancoding.com/sketch -->
    <title>Group Copy</title>
    <desc>Created with Sketch.</desc>
    <defs></defs>
    <g id="Page-1" stroke="none" stroke-width="1" fill="none" fill-rule="evenodd" sketch:type="MSPage">
        <g id="Group-Copy" sketch:type="MSLayerGroup" transform="translate(0.966469, 0.138134)">
            <path d="M18.212233,23.3275862 L18.0660456,22.6571629 C17.4000736,19.6029793 16.0681295,13.4946121 16.0681295,13.4946121 L10.9476292,3.33674569 L7.47368627,1.19019397 L4.57936174,1.07273707 L1.58520508,1.82139009 L0.699632185,3.91702586 L0.444266438,6.43911638 L0.819376925,8.81034483 L2.9303825,11.2303341 L4.95689403,12.3213901 L7.47637717,13.3103448 L10.3018148,14.9127155 L12.3616934,16.5148168 L13.8777426,18.3394397 L15.4960456,20.6058728 L18.212233,23.3275862 Z" id="Path-43" stroke="#2A2A2A" stroke-width="1.1" sketch:type="MSShapeGroup"></path>
            <path d="M18.1339281,23.3510237 C18.1339281,23.3510237 47.3352591,20.552903 63.3942105,19.342403 C63.7347721,19.316732 66.1905865,19.6388739 66.1905865,19.6388739 C66.1905865,19.6388739 68.2396937,21.3963641 68.319352,21.7854257 C69.1430265,25.8083612 70.6867997,32.9070582 70.6867997,32.9070582 L74.4465154,46.264278 L80.3888144,62.3146552 L87.2952605,71.8232759 L94.9885236,79.1699892 L98.0004402,82.5253233 L98.9548999,85.6632543 L104.200258,88.2007004 L111.127693,90.7561961 L119.655671,91.0118534 L125.273448,90.5008082 L131.139326,89.532597 L134.526353,89.4970366 L136.943582,90.2125539 L139.531952,91.8480603 L141.030241,93.4323815 L142.630515,97.454472 L143.804552,102.481142 L136.594304,105.867726 L120.102628,114.931843 L96.7701639,116.56708 L80.6083913,115.555496 L65.8881301,111.773438 L53.635956,110.240302 L37.8934246,108.943427 L21.3355526,109.403287 C21.3355526,109.403287 13.4711486,107.205819 13.164925,107.205819 C12.8587014,107.205819 10.4592321,104.034483 10.4592321,104.034483 L9.31829344,101.412716 L9.57365919,96.1791487 L10.4414722,88.4951509 L12.5540923,79.4735991 L15.1090952,72.1958513 L18.4299263,65.137931 L19.5019781,60.3491379 L19.9276773,47.0646552 L19.4503129,38.4582435 L18.8375966,30.4827586 L18.1339281,23.3510237 Z" id="Path-42" fill="#CD2121" sketch:type="MSShapeGroup"></path>
            <path d="M20.4154033,74.453125 L18.6006886,79.1196121 L17.8890568,87.3685345 L18.1942332,93.1637931 L19.467454,94.1196121 L20.5855412,92.2079741 L20.4154033,88.390625 L20.4154033,83.3459052 L20.6694044,79.1196121 L21.1956261,74.6837284 L21.0431719,73.1761853 L20.4154033,74.453125 Z" id="Path-61" opacity="0.265741604" fill="#D8D8D8" sketch:type="MSShapeGroup" transform="translate(19.542341, 83.647899) rotate(-352.000000) translate(-19.542341, -83.647899) "></path>
            <path d="M113.16492,96.5403317 L104.956785,96.9739044 L93.738222,98.1135714 L84.3798721,97.5210021 L78.3427696,95.5990533 L67.5161878,93.5156856 L70.7613193,97.521002 L73.9857761,99.4245562 C73.9857761,99.4245562 81.7251183,100.693499 82.181345,100.693499 C82.6375717,100.693499 91.7303386,101.712843 91.7303386,101.712843 C91.7303386,101.712843 100.064246,101.249504 100.520473,101.249504 C100.9767,101.249504 106.70021,100.058888 107.292479,100.058888 C107.884748,100.058888 111.49792,98.3102474 111.49792,98.3102474 L113.16492,96.5403317 Z" id="Path-60" opacity="0.265741604" fill="#D8D8D8" sketch:type="MSShapeGroup" transform="translate(90.340554, 97.614265) rotate(-355.000000) translate(-90.340554, -97.614265) "></path>
            <path d="M144.438257,100.872575 L145.476942,102.967942 L147.353033,103.323276 L148.532182,105.878772 L148.327943,108.707705 L128.85987,117.140356 L110.921032,122.54014 L96.098517,122.744612 L84.1929299,123.293912 C84.1929299,123.293912 70.4629174,119.971713 70.1873699,119.971713 C69.9118225,119.971713 61.8458706,118.285291 61.8458706,118.285291 L48.4503361,117.735991 L30.0871439,117.833244 L21.0002673,116.708782 L9.86885015,113.795528 L7.41610116,109.755657 L7.68895772,107.070312 L9.94258062,106.30361 L10.419945,103.985991 L13.0080459,105.212554 L17.19669,106.183459 L25.7448499,106.541218 C25.7448499,106.541218 37.1160256,106.354795 37.1160256,106.712554 C37.1160256,107.070312 48.8754972,106.628233 48.8754972,106.628233 L54.5600087,107.052263 L59.9557874,108.483297 L66.3714145,109.466864 L74.1004665,110.831358 L85.7754441,113.051724 L92.8740199,114.449623 L99.3216686,114.14305 L112.328907,111.684806 L121.043095,109.691541 L129.029666,106.829472 L136.436887,104.051724 L144.438257,100.872575 Z" id="Path-41" fill="#101010" sketch:type="MSShapeGroup"></path>
            <path d="M7.49898067,109.788254 L6.27408617,123.899246 L14.8908638,127.170259 L18.5407911,127.063039 L19.9750371,125.831358 L20.9911183,127.257543 L27.2904988,127.426185 L28.7199012,125.92403 L29.8124038,127.594828 L36.9384267,127.221983 L38.2348989,125.550647 L39.3177143,127.012392 L46.3624722,127.283405 L51.6764477,119.883082 L66.0468928,120.598599 L82.5921176,125.949892 L91.3423636,125.883082 L93.0064118,127.589978 L97.0906492,127.385776 L102.440145,126.941272 L103.292619,125.504849 L105.099823,127.002694 L112.394296,125.228987 L113.313505,123.660022 L115.053975,125.366918 L121.56755,123.59375 L122.522279,121.651401 L123.680978,122.811961 L130.863509,120.762392 L131.307507,119.633082 L132.976937,120.108297 L139.072348,118.130927 L139.787049,116.116918 L141.491999,116.934806 L149.057175,113.352371 L150.313284,111.027478 L148.608334,105.594828 L145.101024,108.549569 L140.57279,111.094828 L133.681951,113.410022 L125.682464,115.899246 L119.031115,117.713362 L108.571075,119.655172 L99.3773701,120.508621 L89.2951322,120.917565 L80.7542377,119.655172 L72.239714,117.984375 L63.8575823,115.735453 L54.5207217,114.4375 L48.5889171,113.685884 L40.1761091,113.788254 L30.3338988,113.547953 L19.7769873,113.072737 L12.2473305,112.081358 L7.49898067,109.788254 Z" id="Path-40" fill="#3E2D25" sketch:type="MSShapeGroup"></path>
            <path d="M59.7093689,20.9612069 L57.1087553,20.9612069 L56.9721925,27.3891433 L56.9721925,31.7423222 L57.1087553,36.4379041 L58.1408473,45.3849677 L59.0622091,52.6627155 L60.866991,58.9156789 L62.5003631,63.7222522 L65.7011803,68.1559806 L69.5534628,72.2944504 L73.1140524,75.4655172 L77.2669076,78.6853448 L82.3591536,81.7877155 L87.5679152,84.9808728 L91.8919112,90.6053341 L95.1947133,94.8806573 L97.0732257,97.7273707 L97.7434599,95.9051724 L98.9102311,91.3011853 L98.5111717,87.4808728 L97.0732257,83.1053341 L91.79477,78.2297953 L84.7473211,72.112069 L79.5043852,64.8830819 L75.1295313,55.2874461 L71.8076239,43.533944 L68.8441434,33.7672414 L67.3490832,23.9765625 L66.2259045,20.9612069 L63.4489029,20.5751616 L59.7093689,20.9612069 Z" id="Path-52" stroke="#212121" stroke-width="0.5" stroke-dasharray="1.1" sketch:type="MSShapeGroup"></path>
            <path d="M18.9651449,23.7634698 C18.9651449,23.7634698 19.4924019,28.4131879 19.6289882,30.4789871 C19.8722238,34.1578022 20.5810262,45.0832435 20.5810262,45.0832435 L20.9849292,54.3116918 L21.4622936,61.6047953 L19.9497427,70.0746228 L18.4514534,75.3054957 L15.6410848,82.4784483 L14.3292744,87.3386315 L13.818812,95.6053341 L14.1255738,103.480334 L15.3534283,105.936153" id="Path-53" stroke="#212121" stroke-width="0.5" stroke-dasharray="1.1" sketch:type="MSShapeGroup"></path>
            <path d="M62.9534422,27.0721983 L70.5829312,25.0789332" id="Path-44" stroke="#2E2E2E" stroke-width="2.2" stroke-linecap="round" sketch:type="MSShapeGroup"></path>
            <path d="M62.8248175,36.4137931 L72.7445255,33.1034483" id="Path-44-Copy" stroke="#2E2E2E" stroke-width="2.2" stroke-linecap="round" sketch:type="MSShapeGroup"></path>
            <path d="M63.9270073,46.3448276 L74.3978102,41.7222522" id="Path-44-Copy-2" stroke="#2E2E2E" stroke-width="2.2" stroke-linecap="round" sketch:type="MSShapeGroup"></path>
            <path d="M66.1313869,56.2758621 L77.1532847,49.6551724" id="Path-44-Copy-3" stroke="#2E2E2E" stroke-width="2.2" stroke-linecap="round" sketch:type="MSShapeGroup"></path>
            <path d="M70.540146,64 L80.459854,57.3793103" id="Path-44-Copy-4" stroke="#2E2E2E" stroke-width="2.2" stroke-linecap="round" sketch:type="MSShapeGroup"></path>
            <path d="M77.1532847,70.6206897 L83.7664234,64" id="Path-44-Copy-5" stroke="#2E2E2E" stroke-width="2.2" stroke-linecap="round" sketch:type="MSShapeGroup"></path>
            <path d="M84.8686131,76.137931 L88.1751825,70.6206897" id="Path-44-Copy-6" stroke="#2E2E2E" stroke-width="2.2" stroke-linecap="round" sketch:type="MSShapeGroup"></path>
            <path d="M92.5839416,81.6551724 L94.7883212,77.2413793" id="Path-44-Copy-7" stroke="#2E2E2E" stroke-width="2.2" stroke-linecap="round" sketch:type="MSShapeGroup"></path>
            <ellipse id="Oval-315" fill="#2E2E2E" sketch:type="MSShapeGroup" cx="62.8248175" cy="27.5862069" rx="2.20437956" ry="2.20689655"></ellipse>
            <ellipse id="Oval-315-Copy" fill="#2E2E2E" sketch:type="MSShapeGroup" cx="62.8248175" cy="36.4137931" rx="2.20437956" ry="2.20689655"></ellipse>
            <ellipse id="Oval-315-Copy-2" fill="#2E2E2E" sketch:type="MSShapeGroup" cx="63.9270073" cy="46.3448276" rx="2.20437956" ry="2.20689655"></ellipse>
            <ellipse id="Oval-315-Copy-3" fill="#2E2E2E" sketch:type="MSShapeGroup" cx="66.1313869" cy="56.2758621" rx="2.20437956" ry="2.20689655"></ellipse>
            <ellipse id="Oval-315-Copy-4" fill="#2E2E2E" sketch:type="MSShapeGroup" cx="70.540146" cy="64" rx="2.20437956" ry="2.20689655"></ellipse>
            <ellipse id="Oval-315-Copy-5" fill="#2E2E2E" sketch:type="MSShapeGroup" cx="77.1532847" cy="70.6206897" rx="2.20437956" ry="2.20689655"></ellipse>
            <ellipse id="Oval-315-Copy-6" fill="#2E2E2E" sketch:type="MSShapeGroup" cx="84.8686131" cy="76.137931" rx="2.20437956" ry="2.20689655"></ellipse>
            <ellipse id="Oval-315-Copy-7" fill="#2E2E2E" sketch:type="MSShapeGroup" cx="92.5839416" cy="81.6551724" rx="2.20437956" ry="2.20689655"></ellipse>
            <path d="M13.677271,77.440194 L16.3676259,79.3313578 L19.619301,80.1158405 L23.3663695,81.137931 L30.8911828,84.1047953 L37.713942,88.0247845 L43.2784397,91.6557112 L46.6121871,95.7087823 L48.2991079,99.1355065 L49.2691748,102.782058 L49.16719,106.124461 L49.2180479,107.726832" id="Path-54" stroke="#212121" stroke-width="0.5" stroke-dasharray="1.1" sketch:type="MSShapeGroup"></path>
            <path d="M94.5154646,93.6877694 L90.0894838,93.5856681 L84.0809888,93.2790948 L77.6640162,93.4655172 L71.7219862,94.2322198 L67.719821,95.612069 L64.1616532,97.5210129 L61.1470457,100.094289 L57.6911318,102.71875 L53.5202476,107.098599" id="Path-55" stroke="#212121" stroke-width="0.5" stroke-dasharray="1.1" sketch:type="MSShapeGroup"></path>
            <path d="M95.8482639,95.5301724 L89.4824183,95.1699892 L81.8402821,95.1699892 L75.5433234,95.5277478 L71.3546793,96.7211746 L67.6587377,97.9835668 L63.2814621,101.410291 L58.674115,104.716864 L56.5962074,107.801185" id="Path-56" stroke="#212121" stroke-width="0.5" stroke-dasharray="1.1" sketch:type="MSShapeGroup"></path>
            <path d="M97.168416,97.7661638 L89.8300817,97.3903556 L82.596154,97.1858836 L77.2181352,97.8504849 L73.098378,98.7192888 L68.9966497,100.270474 L64.8768925,102.263739 L61.898074,105.279095 L58.5621739,108.296875" id="Path-57" stroke="#212121" stroke-width="0.5" stroke-dasharray="1.1" sketch:type="MSShapeGroup"></path>
            <path d="M10.2393357,106.512931 L12.9652103,107.997575 L20.199138,109.530711 L27.2619249,109.633082 L36.0780977,109.88847 L45.0831712,110.195312 L52.1995069,110.501886 L56.6077278,111.115302 L66.9418334,113.273438 L74.3799999,114.295528 L82.0398959,116 L87.3159299,116.971175 L92.7663337,117.41945 L99.0124346,117.521552 C99.0124346,117.521552 105.309393,116.923761 105.651406,116.923761 C105.993418,116.923761 112.068378,115.33944 112.068378,115.33944 L118.214647,113.908136 L127.292913,111.43292 L132.8932,109.421875 L138.44209,106.713093 L143.123437,104.224138 L145.591793,102.724138" id="Path-58" stroke="#DB9F2D" stroke-width="0.55" stroke-dasharray="4.4,1.1" sketch:type="MSShapeGroup"></path>
            <path d="M122.754503,96.5996767 C124.912621,95.9996079 129.832628,93.8860453 129.832628,93.8860453 L134.429481,92.7438039 L136.354007,93.8348599 L137.257609,95.421875 L137.053371,96.6839978 L135.113506,97.315194 L132.185814,97.110722 L129.30925,96.7529634 L126.432416,96.5996767 C126.432416,96.5996767 121.662381,96.9033436 122.754503,96.5996767 Z" id="Path-59" opacity="0.265741604" fill="#D8D8D8" sketch:type="MSShapeGroup"></path>
        </g>
    </g>
</svg>

<svg width="152" height="128" xmlns="http://www.w3.org/2000/svg"><g transform="translate(.966 .138)" fill="none" fill-rule="evenodd"><path d="m18.212 23.328-.146-.67-1.998-9.163-5.12-10.158L7.474 1.19l-2.895-.117-2.994.748L.7 3.917.444 6.439.82 8.81l2.111 2.42 2.027 1.091 2.52.99 2.825 1.602 2.06 1.602 1.516 1.824 1.618 2.267 2.716 2.722Z" stroke="#2A2A2A" stroke-width="1.1"/><path d="M18.134 23.351s29.201-2.798 45.26-4.009c.34-.025 2.797.297 2.797.297s2.049 1.757 2.128 2.146a1249.35 1249.35 0 0 0 2.368 11.122l3.76 13.357 5.942 16.05 6.906 9.51 7.694 7.346L98 82.525l.955 3.138 5.245 2.538 6.928 2.555 8.528.256 5.617-.511 5.866-.968 3.387-.036 2.418.716 2.588 1.635 1.498 1.584 1.6 4.022 1.175 5.027-7.21 3.387-16.492 9.064-23.333 1.635-16.162-1.012-14.72-3.782-12.252-1.533-15.743-1.297-16.557.46s-7.865-2.197-8.171-2.197c-.306 0-2.706-3.172-2.706-3.172l-1.14-2.621.255-5.234.867-7.684 2.113-9.021 2.555-7.278 3.32-7.058 1.073-4.789.426-13.284-.478-8.607-.612-7.975-.704-7.132Z" fill="#CD2121"/><path d="m21.687 74.664-2.447 4.369-1.853 8.07-.504 5.78 1.128 1.124 1.373-1.737.363-3.804.702-4.996.84-4.15 1.138-4.319.059-1.514-.8 1.177Zm91.485 23.87-8.215-.284-11.275.158-9.271-1.406-5.847-2.441-10.604-3.019 2.884 4.273 3.046 2.177s7.6 1.939 8.054 1.979c.455.04 9.424 1.847 9.424 1.847s8.342.265 8.797.305c.454.04 6.26-.648 6.85-.596.59.052 4.342-1.375 4.342-1.375l1.815-1.618Z" opacity=".266" fill="#D8D8D8"/><path d="m144.438 100.873 1.039 2.095 1.876.355 1.18 2.556-.205 2.829-19.468 8.432-17.939 5.4-14.822.205-11.906.549s-13.73-3.322-14.006-3.322c-.275 0-8.341-1.687-8.341-1.687l-13.396-.549-18.363.097L21 116.71l-11.13-2.914-2.453-4.04.273-2.686 2.254-.766.477-2.318 2.588 1.227 4.189.97 8.548.358s11.371-.186 11.371.172c0 .357 11.76-.085 11.76-.085l5.684.424 5.396 1.431 6.415.984 7.73 1.364 11.674 2.22 7.099 1.399 6.448-.307 13.007-2.458 8.714-1.993 7.987-2.863 7.407-2.777 8.001-3.18Z" fill="#101010"/><path d="M7.499 109.788 6.274 123.9l8.617 3.271 3.65-.107 1.434-1.232 1.016 1.427 6.3.168 1.429-1.502 1.092 1.67 7.126-.372 1.297-1.671 1.083 1.461 7.044.271 5.314-7.4 14.37.716 16.546 5.35 8.75-.066 1.664 1.707 4.085-.204 5.35-.445.852-1.436 1.807 1.498 7.294-1.774.92-1.569 1.74 1.707 6.514-1.773.954-1.943 1.159 1.161 7.183-2.05.444-1.129 1.669.475 6.095-1.977.715-2.014 1.705.818 7.565-3.583 1.256-2.325-1.705-5.432-3.507 2.955-4.528 2.545-6.891 2.315-8 2.49-6.65 1.813-10.46 1.942-9.195.854-10.082.409-8.54-1.263-8.515-1.67-8.382-2.25-9.337-1.297-5.932-.752-8.413.102-9.842-.24-10.557-.475-7.53-.992-4.748-2.293Z" fill="#3E2D25"/><path d="M59.71 20.961h-2.601l-.137 6.428v4.353l.137 4.696 1.032 8.947.921 7.278 1.805 6.253 1.633 4.806 3.201 4.434 3.852 4.138 3.561 3.172 4.153 3.22 5.092 3.102 5.209 3.193 4.324 5.624 3.303 4.276 1.878 2.846.67-1.822 1.167-4.604-.399-3.82-1.438-4.376-5.278-4.875-7.048-6.118-5.243-7.229-4.374-9.596-3.322-11.753-2.964-9.767-1.495-9.79-1.123-3.016-2.777-.386-3.74.386Zm-40.745 2.802s.527 4.65.664 6.716c.243 3.679.952 14.604.952 14.604l.404 9.229.477 7.293-1.512 8.47-1.499 5.23-2.81 7.173-1.312 4.86-.51 8.267.307 7.875 1.227 2.456" stroke="#212121" stroke-width=".5" stroke-dasharray="1.1"/><path d="m62.953 27.072 7.63-1.993m-7.758 11.335 9.92-3.31m-8.818 13.241 10.47-4.623m-8.266 14.554 11.022-6.62M70.54 64l9.92-6.62m-3.307 13.24L83.766 64m1.103 12.138 3.306-5.517m4.409 11.034 2.204-4.414" stroke="#2E2E2E" stroke-width="2.2" stroke-linecap="round"/><ellipse fill="#2E2E2E" cx="62.825" cy="27.586" rx="2.204" ry="2.207"/><ellipse fill="#2E2E2E" cx="62.825" cy="36.414" rx="2.204" ry="2.207"/><ellipse fill="#2E2E2E" cx="63.927" cy="46.345" rx="2.204" ry="2.207"/><ellipse fill="#2E2E2E" cx="66.131" cy="56.276" rx="2.204" ry="2.207"/><ellipse fill="#2E2E2E" cx="70.54" cy="64" rx="2.204" ry="2.207"/><ellipse fill="#2E2E2E" cx="77.153" cy="70.621" rx="2.204" ry="2.207"/><ellipse fill="#2E2E2E" cx="84.869" cy="76.138" rx="2.204" ry="2.207"/><ellipse fill="#2E2E2E" cx="92.584" cy="81.655" rx="2.204" ry="2.207"/><path d="m13.677 77.44 2.69 1.891 3.252.785 3.747 1.022 7.525 2.967 6.823 3.92 5.564 3.63 3.334 4.054 1.687 3.427.97 3.646-.102 3.342.051 1.603m45.297-14.039-4.426-.102-6.008-.307-6.417.187-5.942.766-4.002 1.38-3.558 1.909-3.015 2.573-3.456 2.625-4.17 4.38" stroke="#212121" stroke-width=".5" stroke-dasharray="1.1"/><path d="m95.848 95.53-6.366-.36H81.84l-6.297.358-4.188 1.193-3.696 1.263-4.378 3.426-4.607 3.307-2.078 3.084" stroke="#212121" stroke-width=".5" stroke-dasharray="1.1"/><path d="m97.168 97.766-7.338-.376-7.234-.204-5.378.664-4.12.87-4.101 1.55-4.12 1.994-2.979 3.015-3.336 3.018" stroke="#212121" stroke-width=".5" stroke-dasharray="1.1"/><path d="m10.24 106.513 2.725 1.485 7.234 1.533 7.063.102 8.816.255 9.005.307 7.117.307 4.408.613 10.334 2.158 7.438 1.023L82.04 116l5.276.971 5.45.448 6.246.103s6.297-.598 6.64-.598c.341 0 6.416-1.585 6.416-1.585l6.147-1.43 9.078-2.476 5.6-2.011 5.55-2.709 4.68-2.489 2.469-1.5" stroke="#DB9F2D" stroke-width=".55" stroke-dasharray="4.4,1.1"/><path d="M122.755 96.6c2.158-.6 7.078-2.714 7.078-2.714l4.596-1.142 1.925 1.09.904 1.588-.205 1.262-1.94.631-2.927-.204-2.877-.358-2.877-.153s-4.77.303-3.677 0Z" opacity=".266" fill="#D8D8D8"/></g></svg>
